build/images/icons/home.svg

<svg width="32" height="32" viewBox="0 0 32 32" fill="none" xmlns="http://www.w3.org/2000/svg">
<path d="M13.3337 26.6667V18.6667H18.667V26.6667H25.3337V16H29.3337L16.0003 4L2.66699 16H6.66699V26.6667H13.3337Z"/>
</svg>

<svg width="32" height="32" fill="none" xmlns="http://www.w3.org/2000/svg"><path d="M13.334 26.667v-8h5.333v8h6.667V16h4L16 4 2.667 16h4v10.667h6.667z"/></svg>
